src/images/bg/clouds/cloud.svg

<svg height="420.9346" width="767.77173" xmlns="http://www.w3.org/2000/svg"><g transform="translate(-142.29523 -469.84764)"><path d="m455.53125 5c-54.49315.369935-108.24063 25.141509-126.90625 70.09375-91.25195-121.185169-291.957653-7.454937-233.71875 113.8125-138.108855-25.63809-106.389137 197.56985 22.46875 175.8125 55.32456 57.59304 140.17526 67.00709 232 26.28125h.0625c111.00861 40.416 207.55838 10.28964 251.09375-20.5625 261.28321 68.17506 167.30392-349.25091-4.15625-240.34375-1.33857-86.730383-71.689-125.5632175-140.84375-125.09375z" fill="#f2f2f2" transform="translate(142.29523 469.84764)"/><path d="m470.91811 544.94223c44.24444-106.55346 285.63354-99.69979 266.71711 76.68751m1.03771-21.69172c171.46017-108.90716 265.43737 308.50861 4.15416 240.33355m16.53351-14.42319c-31.75604 36.10817-153.16541 87.92194-292.20644 24.98419m24.50594 10.0029c-91.82474 40.72584-176.65416 31.32367-231.97872-26.26937m23.89327-6.54519c-148.40737 55.61986-192.67333-196.42912-46.38417-169.27246m12.56211 20.7809c-99.64522-135.92843 151.77233-278.6515 236.95442-108.95426" fill="none" stroke="#515151" stroke-linecap="round" stroke-linejoin="round" stroke-width="10"/></g></svg>

<?xml version="1.0" encoding="UTF-8" standalone="no"?>
<!-- Created with Inkscape (http://www.inkscape.org/) -->
<svg xmlns:dc="http://purl.org/dc/elements/1.1/" xmlns:cc="http://creativecommons.org/ns#" xmlns:rdf="http://www.w3.org/1999/02/22-rdf-syntax-ns#" xmlns:svg="http://www.w3.org/2000/svg" xmlns="http://www.w3.org/2000/svg" xmlns:sodipodi="http://sodipodi.sourceforge.net/DTD/sodipodi-0.dtd" xmlns:inkscape="http://www.inkscape.org/namespaces/inkscape" width="767.77173" height="420.9346" id="svg2" version="1.1" inkscape:version="0.48.1 " sodipodi:docname="cloud.svg">
  <defs id="defs4"/>
  <sodipodi:namedview id="base" pagecolor="#ffffff" bordercolor="#666666" borderopacity="1.0" inkscape:pageopacity="0.0" inkscape:pageshadow="2" inkscape:zoom="1.3018996" inkscape:cx="286.18513" inkscape:cy="240.48245" inkscape:document-units="px" inkscape:current-layer="layer1" showgrid="false" inkscape:object-paths="true" inkscape:window-width="1445" inkscape:window-height="907" inkscape:window-x="88" inkscape:window-y="88" inkscape:window-maximized="0" fit-margin-top="0" fit-margin-left="0" fit-margin-right="0" fit-margin-bottom="0" inkscape:object-nodes="true" inkscape:snap-smooth-nodes="true"/>
  <g inkscape:label="Ebene 1" inkscape:groupmode="layer" id="layer1" transform="translate(-142.29523,-469.84764)">
    <path style="fill:#f2f2f2;stroke:none;stroke-width:1;stroke-linecap:round;stroke-linejoin:round;stroke-miterlimit:4;stroke-opacity:1;stroke-dasharray:none" d="M 455.53125 5 C 401.0381 5.369935 347.29062 30.141509 328.625 75.09375 C 237.37305 -46.091419 36.667347 67.638813 94.90625 188.90625 C -43.202605 163.26816 -11.482887 386.4761 117.375 364.71875 C 172.69956 422.31179 257.55026 431.72584 349.375 391 L 349.4375 391 C 460.44611 431.416 556.99588 401.28964 600.53125 370.4375 C 861.81446 438.61256 767.83517 21.18659 596.375 130.09375 C 595.03643 43.363367 524.686 4.5305325 455.53125 5 z " transform="translate(142.29523,469.84764)" id="filling" inkscape:label="#filling"/>
    <path style="fill:none;stroke:#515151;stroke-width:10;stroke-linecap:round;stroke-linejoin:round;stroke-miterlimit:4;stroke-opacity:1;stroke-dasharray:none" d="m 470.91811,544.94223 c 44.24444,-106.55346 285.63354,-99.69979 266.71711,76.68751 m 1.03771,-21.69172 c 171.46017,-108.90716 265.43737,308.50861 4.15416,240.33355 m 16.53351,-14.42319 c -31.75604,36.10817 -153.16541,87.92194 -292.20644,24.98419 m 24.50594,10.0029 C 399.83536,901.56131 315.00594,892.15914 259.68138,834.5661 m 23.89327,-6.54519 C 135.16728,883.64077 90.90132,631.59179 237.19048,658.74845 m 12.56211,20.7809 C 150.10737,543.60092 401.52492,400.87785 486.70701,570.57509" id="outline" inkscape:connector-curvature="0" sodipodi:nodetypes="cccccccccccc"/>
  </g>
  <metadata>
    <rdf:RDF>
      <cc:Work>
        <dc:format>image/svg+xml</dc:format>
        <dc:type rdf:resource="http://purl.org/dc/dcmitype/StillImage"/>
        <cc:license rdf:resource="http://creativecommons.org/licenses/publicdomain/"/>
        <dc:publisher>
          <cc:Agent rdf:about="http://openclipart.org/">
            <dc:title>Open Clip Art Library</dc:title>
          </cc:Agent>
        </dc:publisher>
        <dc:title>Cumulus Cloud</dc:title>
        <dc:date>2012-03-01T04:11:05</dc:date>
        <dc:description>A small cumulus cloud</dc:description>
        <dc:source>http://openclipart.org/detail/168626/cumulus-cloud-by-xoff</dc:source>
        <dc:creator>
          <cc:Agent>
            <dc:title>Xoff</dc:title>
          </cc:Agent>
        </dc:creator>
        <dc:subject>
          <rdf:Bag>
            <rdf:li>clip art</rdf:li>
            <rdf:li>clipart</rdf:li>
            <rdf:li>cloud</rdf:li>
            <rdf:li>weather</rdf:li>
          </rdf:Bag>
        </dc:subject>
      </cc:Work>
      <cc:License rdf:about="http://creativecommons.org/licenses/publicdomain/">
        <cc:permits rdf:resource="http://creativecommons.org/ns#Reproduction"/>
        <cc:permits rdf:resource="http://creativecommons.org/ns#Distribution"/>
        <cc:permits rdf:resource="http://creativecommons.org/ns#DerivativeWorks"/>
      </cc:License>
    </rdf:RDF>
  </metadata>
</svg>
